resources/images/help-rollover.svg

<?xml version="1.0" encoding="UTF-8"?>
<svg width="24px" height="24px" viewBox="0 0 24 24" version="1.1" xmlns="http://www.w3.org/2000/svg" xmlns:xlink="http://www.w3.org/1999/xlink">
    <!-- Generator: Sketch 55.2 (78181) - https://sketchapp.com -->
    <title>Icons / titles / help</title>
    <desc>Created with Sketch.</desc>
    <g id="Icons-/-titles-/-help" stroke="none" stroke-width="1" fill="none" fill-rule="evenodd">
        <path d="M12.1684381,0.648438134 C18.5274781,0.648438134 23.6884381,5.80939813 23.6884381,12.1684381 C23.6884381,18.5274781 18.5274781,23.6884381 12.1684381,23.6884381 C5.80939813,23.6884381 0.648438134,18.5274781 0.648438134,12.1684381 C0.648438134,5.80939813 5.80939813,0.648438134 12.1684381,0.648438134 Z M12.1684381,2.56843813 C6.86923813,2.56843813 2.56843813,6.86923813 2.56843813,12.1684381 C2.56843813,17.4676381 6.86923813,21.7684381 12.1684381,21.7684381 C17.4676381,21.7684381 21.7684381,17.4676381 21.7684381,12.1684381 C21.7684381,6.86923813 17.4676381,2.56843813 12.1684381,2.56843813 Z" id="Shape" fill="#0051BC" fill-rule="nonzero"></path>
        <path d="M12.732,4.848 C10.26,4.488 8.076,6.012 7.416,8.196 C7.2,8.892 7.728,9.6 8.46,9.6 L8.7,9.6 C9.192,9.6 9.588,9.252 9.756,8.796 C10.14,7.728 11.28,6.996 12.516,7.26 C13.656,7.5 14.496,8.616 14.4,9.78 C14.28,11.388 12.456,11.736 11.46,13.236 C11.46,13.248 11.448,13.248 11.448,13.26 C11.436,13.284 11.424,13.296 11.412,13.32 C11.304,13.5 11.196,13.704 11.112,13.92 C11.1,13.956 11.076,13.98 11.064,14.016 C11.052,14.04 11.052,14.064 11.04,14.1 C10.896,14.508 10.8,15 10.8,15.6 L13.2,15.6 C13.2,15.096 13.332,14.676 13.536,14.316 C13.56,14.28 13.572,14.244 13.596,14.208 C13.692,14.04 13.812,13.884 13.932,13.74 C13.944,13.728 13.956,13.704 13.968,13.692 C14.088,13.548 14.22,13.416 14.364,13.284 C15.516,12.192 17.076,11.304 16.752,9.012 C16.464,6.924 14.82,5.16 12.732,4.848 L12.732,4.848 Z" id="Shape" fill="#FB5C41" fill-rule="nonzero"></path>
        <circle id="Oval" fill="#0051BC" fill-rule="nonzero" cx="12" cy="18.5" r="1.5"></circle>
    </g>
</svg>

<svg width="24" height="24" xmlns="http://www.w3.org/2000/svg"><g fill="none" fill-rule="nonzero"><path d="M12.168.648c6.36 0 11.52 5.161 11.52 11.52 0 6.36-5.16 11.52-11.52 11.52-6.359 0-11.52-5.16-11.52-11.52C.648 5.81 5.81.648 12.168.648zm0 1.92c-5.299 0-9.6 4.301-9.6 9.6 0 5.3 4.301 9.6 9.6 9.6 5.3 0 9.6-4.3 9.6-9.6 0-5.299-4.3-9.6-9.6-9.6z" fill="#0051BC"/><path d="M12.732 4.848a4.802 4.802 0 00-5.316 3.348A1.088 1.088 0 008.46 9.6h.24c.492 0 .888-.348 1.056-.804a2.402 2.402 0 012.76-1.536c1.14.24 1.98 1.356 1.884 2.52-.12 1.608-1.944 1.956-2.94 3.456 0 .012-.012.012-.012.024-.012.024-.024.036-.036.06-.108.18-.216.384-.3.6-.012.036-.036.06-.048.096-.012.024-.012.048-.024.084-.144.408-.24.9-.24 1.5h2.4c0-.504.132-.924.336-1.284.024-.036.036-.072.06-.108a3.31 3.31 0 01.336-.468c.012-.012.024-.036.036-.048.12-.144.252-.276.396-.408 1.152-1.092 2.712-1.98 2.388-4.272-.288-2.088-1.932-3.852-4.02-4.164z" fill="#FB5C41"/><circle fill="#0051BC" cx="12" cy="18.5" r="1.5"/></g></svg>
